Newaita-dark/.DP/32/synergy-panel-ok.svg

<svg xmlns="http://www.w3.org/2000/svg" xmlns:xlink="http://www.w3.org/1999/xlink" width="32px" height="32px" viewBox="0 0 32 32" version="1.1">
<g id="surface1">
<path style=" stroke:none;fill-rule:nonzero;fill:rgb(93.333334%,93.333334%,93.333334%);fill-opacity:1;" d="M 15.558594 4.214844 C 9.542969 4.371094 4.660156 8.949219 4.035156 14.839844 C 4.527344 15.246094 5.15625 15.496094 5.847656 15.496094 C 6.320312 15.496094 6.761719 15.378906 7.152344 15.175781 C 7.609375 10.863281 11.164062 7.503906 15.5625 7.351562 C 15.363281 6.867188 15.25 6.335938 15.25 5.777344 C 15.25 5.222656 15.363281 4.695312 15.558594 4.214844 Z M 16.949219 4.257812 C 16.667969 4.695312 16.503906 5.214844 16.503906 5.777344 C 16.503906 6.390625 16.699219 6.957031 17.027344 7.417969 C 21.242188 7.964844 24.496094 11.480469 24.648438 15.808594 C 25.132812 15.605469 25.664062 15.496094 26.222656 15.496094 C 26.777344 15.496094 27.300781 15.605469 27.785156 15.800781 C 27.625 9.710938 22.9375 4.785156 16.949219 4.257812 Z M 15.875 9.851562 C 12.402344 9.851562 9.605469 12.648438 9.605469 16.121094 C 9.605469 19.59375 12.402344 22.390625 15.875 22.390625 C 19.347656 22.390625 22.144531 19.59375 22.144531 16.121094 C 22.144531 12.648438 19.347656 9.851562 15.875 9.851562 Z M 19.253906 12.808594 C 19.722656 12.832031 20.144531 13.101562 20.363281 13.519531 C 20.582031 13.941406 20.558594 14.441406 20.300781 14.839844 L 16.992188 20.132812 C 16.765625 20.496094 16.378906 20.722656 15.953125 20.746094 C 15.527344 20.773438 15.113281 20.589844 14.847656 20.257812 L 12.203125 16.949219 C 11.902344 16.582031 11.820312 16.082031 11.988281 15.636719 C 12.160156 15.195312 12.558594 14.878906 13.027344 14.808594 C 13.496094 14.738281 13.964844 14.929688 14.257812 15.304688 L 15.746094 17.160156 L 18.066406 13.445312 C 18.316406 13.03125 18.769531 12.789062 19.253906 12.808594 Z M 3.96875 16.292969 C 4.054688 22.449219 8.769531 27.453125 14.808594 27.984375 C 15.089844 27.546875 15.25 27.023438 15.25 26.464844 C 15.25 25.851562 15.058594 25.285156 14.726562 24.824219 C 10.550781 24.28125 7.316406 20.824219 7.113281 16.550781 C 6.714844 16.675781 6.289062 16.746094 5.847656 16.746094 C 5.167969 16.746094 4.53125 16.582031 3.96875 16.292969 Z M 26.222656 16.746094 C 25.605469 16.746094 25.042969 16.941406 24.582031 17.269531 C 24.035156 21.484375 20.519531 24.738281 16.191406 24.890625 C 16.394531 25.375 16.503906 25.90625 16.503906 26.464844 C 16.503906 27.019531 16.394531 27.546875 16.195312 28.027344 C 22.289062 27.871094 27.214844 23.179688 27.742188 17.191406 C 27.300781 16.910156 26.78125 16.746094 26.222656 16.746094 Z M 26.222656 16.746094 "/>
</g>
</svg>

<svg xmlns="http://www.w3.org/2000/svg" width="32pt" height="32pt" viewBox="0 0 32 32"><path d="M15.559 4.215a11.878 11.878 0 0 0-11.524 10.62 2.81 2.81 0 0 0 3.117.34 8.75 8.75 0 0 1 8.41-7.823 4.13 4.13 0 0 1-.003-3.137zm1.386.043a2.836 2.836 0 0 0 .082 3.16 8.755 8.755 0 0 1 7.621 8.39 4.057 4.057 0 0 1 1.575-.312c.55 0 1.082.11 1.562.309a11.883 11.883 0 0 0-10.84-11.547zm-1.07 5.594a6.257 6.257 0 0 0-6.27 6.27 6.257 6.257 0 0 0 6.27 6.269 6.257 6.257 0 0 0 6.27-6.27 6.257 6.257 0 0 0-6.27-6.27zm3.375 2.96c.473.02.898.29 1.113.708.219.421.192.925-.062 1.32l-3.309 5.293a1.33 1.33 0 0 1-1.039.617c-.426.023-.84-.16-1.105-.492l-2.645-3.309a1.32 1.32 0 0 1-.215-1.312c.172-.442.57-.758 1.04-.828.468-.07.94.12 1.23.496l1.488 1.855 2.32-3.715c.25-.414.704-.656 1.184-.633zM3.969 16.294c.086 6.16 4.8 11.16 10.84 11.691.28-.437.441-.96.441-1.52 0-.612-.191-1.179-.523-1.64a8.754 8.754 0 0 1-7.614-8.273 4.105 4.105 0 0 1-1.265.195c-.68 0-1.317-.164-1.88-.453zm22.254.453c-.614 0-1.18.195-1.645.527a8.75 8.75 0 0 1-8.387 7.618c.204.484.313 1.015.313 1.574 0 .555-.11 1.082-.309 1.562a11.882 11.882 0 0 0 11.547-10.836 2.806 2.806 0 0 0-1.52-.445zm0 0" fill="#bdbdbd"/></svg>
